X: 186
T: Aşıkına Eylemez
C: Numan Ağa
O: Turkey
F: http://compmusic.upf.edu/node/140
N: saba--sarki--sofyan--asikina_eylemez--numan_aga
N: makam= saba
N: form= sarki
N: usul= sofyan = 4/4
M: 4/4
L: 1/16
K: C _2/4B _3/4d  
Q: 1/4=60
%%MIDI tuningsystem comma53
A_1/4Bc3Be_7/8d cBc4z2  | c_7/8de3cd3_1/4BcB cdcB  | 
w:   |   | 
A_1/4Bc3Be_7/8d cBc4z2  | c_7/8de3cd3_1/4Bc4z2  | \
w:   |   | 
A_1/4Bc3B_7/8de dcBA GAG2  | 
w:   | 
A_1/4Bc3Be_7/8d cBA4z2  | A_1/4Bc3B_7/8de dcBA GAG2  | 
w:   |   | 
A_1/4Bc3Be_7/8d cBA4z2  | c=de3fed ^cde4z2  | \
w:   |   | 
gffe2_7/8ddc d_1/4BcB cdc2  | 
w:   | 
c=de3fed ^cde4z2  | gffe2_7/8ddc d_1/4Bc4z2  | 
w:   |   | 
A_1/4Bc3B_7/8de dcBA GAG2  | A_1/4Bc3Be_7/8d cBA4z2  | 
w:   |   | 
A_1/4Bc3B_7/8de dcBA GAG2  | A_1/4Bc3Be_7/8d cBA4z2  | 
w:   |   | 
A_1/4Bc3Be_7/8d cBc4z2  | c_7/8de3cd3_1/4BcB cdcB  | 
w:   |   | 
A_1/4Bc3Be_7/8d cBc4z2  | c_7/8de3cd3_1/4Bc4z2  | \
w:   |   | 
A_1/4Bc3B_7/8de dcBA GAG2  | 
w:   | 
A_1/4Bc3Be_7/8d cBA4z2  | A_1/4Bc3B_7/8de dcBA GAG2  | 
w:   |   | 
A_1/4Bc3Be_7/8d cBA4z2  | c=de3fed ^cde4z2  | \
w:   |   | 
gffe2_7/8ddc d_1/4BcB cdc2  | 
w:   | 
c=de3fed ^cde4z2  | gffe2_7/8ddc d_1/4Bc4z2  | 
w:   |   | 
A_1/4Bc3B_7/8de dcBA GAG2  | A_1/4Bc3Be_7/8d cBA4z2  | 
w:   |   | 
A_1/4Bc3B_7/8de dcBA GAG2  | A_1/4Bc3Be_7/8d cBA4z2  | 
w:   |   | 
A_1/4Bc3Be_7/8d cBA4z4c3Bed cBA4z4|
w:   | 


